X:1
T:God Save The King
B:"New Instructions for the Clarinet"
B:London, Brewer & Co.
N:page 11 on manuscript
M:3/4
L:1/8
K:C
c2 c2 d2 | {c}TB3 c d2 | e2 e2 f2 | Te3 d c2 | d2 c2 TB2 | c6 :||: g2 g2 g2 | Tg3 f e2 |
e2 e2 e2 | Te3 d c2 | d2 (fe)(dc) | Te3 f g2 | (3(agf) e2 Td2 | c6 :|
|:

